icons/pulse-dark.svg

<svg width="256" height="256" viewBox="0 0 256 256" fill="none" xmlns="http://www.w3.org/2000/svg">
<rect width="256" height="256" rx="60" fill="#282828" />
<path d="M121.904 78.2815C124.648 78.3133 126.989 80.1421 127.501 82.6546L140.237 145.22L146.267 134.279C147.255 132.487 149.237 131.359 151.4 131.359H206.208C209.394 131.359 211.977 133.766 211.977 136.734C211.977 139.703 209.394 142.109 206.208 142.109H154.923L142.83 164.049C141.705 166.091 139.311 167.242 136.873 166.913C134.434 166.585 132.489 164.85 132.03 162.595L121.471 110.729L109.443 162.726C108.879 165.166 106.586 166.923 103.907 166.968C101.228 167.013 98.8689 165.334 98.2108 162.914L88.9115 128.741L82.9402 139.249C81.9403 141.009 79.9783 142.109 77.8413 142.109H46.1102C42.9239 142.109 40.3409 139.703 40.3409 136.734C40.3409 133.766 42.9239 131.359 46.1102 131.359H74.3677L85.7234 111.376C86.8399 109.411 89.1396 108.289 91.5089 108.554C93.8781 108.818 95.8283 110.415 96.4145 112.569L103.348 138.049L116.192 82.5237C116.771 80.0239 119.159 78.2498 121.904 78.2815Z" fill="url(#paint0_linear_3_212)"/>
<linearGradient id="paint0_linear_3_212" x1="126.159" y1="78.2811" x2="126.159" y2="166.969" gradientUnits="userSpaceOnUse">
<stop stop-color="#F85A5A"/>
<stop offset="0.828125" stop-color="#7A5AF8"/>
</linearGradient>
</svg>

<svg xmlns="http://www.w3.org/2000/svg" width="256" height="256" fill="none"><rect width="256" height="256" fill="#282828" rx="60"/><path fill="url(#paint0_linear_3_212)" d="M121.904 78.282c2.744.031 5.085 1.86 5.597 4.373l12.736 62.565 6.03-10.941c.988-1.792 2.97-2.92 5.133-2.92h54.808c3.186 0 5.769 2.407 5.769 5.375s-2.583 5.375-5.769 5.375h-51.285l-12.093 21.94c-1.125 2.042-3.519 3.193-5.957 2.864-2.439-.328-4.384-2.063-4.843-4.318l-10.559-51.866-12.028 51.997c-.564 2.44-2.857 4.197-5.536 4.242s-5.038-1.634-5.696-4.054l-9.3-34.173-5.97 10.508c-1 1.76-2.963 2.86-5.1 2.86h-31.73c-3.187 0-5.77-2.406-5.77-5.375s2.583-5.375 5.77-5.375h28.257l11.355-19.983c1.117-1.965 3.417-3.087 5.786-2.822 2.37.264 4.32 1.861 4.906 4.015l6.933 25.48 12.844-55.525c.579-2.5 2.967-4.274 5.712-4.243"/><linearGradient id="paint0_linear_3_212" x1="126.159" x2="126.159" y1="78.281" y2="166.969" gradientUnits="userSpaceOnUse"><stop stop-color="#F85A5A"/><stop offset=".828" stop-color="#7A5AF8"/></linearGradient></svg>
